X:27
T: Riding On A Load Of Hay
C: Traditional
S: MCD 274 From Pocket Full O' Gimmick
Z: downloaded from somewhere
N: Second in set with "King of the Faeries"
R: Polka
M: 4/4
L: 1/8
Q: 160
K: D
|:"Em"E3FG2A2|"Em"B2e2e2fe|"Bm"d2B2A2G2|"D"FGFE D2B,2|
"Em"E3FG2A2|"Em"B2e2e3f|"G"gfe2"D"f2d2|1"Em"e4e2B,2:|2"Em"e4e2f2|
||"Em"g2e2"Bm"f2d2|"Em"e2B2B3c|"D"dedB ABAG|"D"F2D2D4|
"Em"g2e2"Bm"f2d2|"Em"e2B2B3c|"Bm"d3B"D"A2F2|"Em"E4E4||
"Em"g2e2"Bm"f2d2|"Em"e2B2B3c|"D"dedB ABAG|"D"F2D2D4|
"Em"EFG2"D"FGA2|"Em"G2e2e3f|"Em"g2e2"D"agf2|"Em"e4e4||
% ----------------------------------------------------------------------------
